src/gen3-ui-component/images/icons/eye.svg

<?xml version="1.0" encoding="UTF-8"?>
<svg width="12px" height="8px" viewBox="0 0 12 8" version="1.1" xmlns="http://www.w3.org/2000/svg" xmlns:xlink="http://www.w3.org/1999/xlink">
    <!-- Generator: Sketch 52.2 (67145) - http://www.bohemiancoding.com/sketch -->
    <title>icon_eye</title>
    <desc>Created with Sketch.</desc>
    <g id="Page-1" stroke="none" stroke-width="1" fill="none" fill-rule="evenodd">
        <g id="icon_eye" fill="#4A4A4A" fill-rule="nonzero">
            <g id="Group-11">
                <g id="Group-3">
                    <g id="Group-7">
                        <g id="eye">
                            <g id="Shape">
                                <path d="M11.8535625,3.6471345 L9.7655625,1.56320468 C7.68578906,-0.51251462 4.31421094,-0.51251462 2.23446094,1.56320468 L0.1464375,3.6471345 C-0.0488203125,3.8420117 -0.0488203125,4.1579883 0.1464375,4.3528655 L2.2344375,6.43679532 C4.31421094,8.51251462 7.68578906,8.51251462 9.76553906,6.43679532 L11.8535391,4.3528655 C12.0488203,4.1579883 12.0488203,3.8420117 11.8535625,3.6471345 Z M9.05845313,5.73106433 C7.36921875,7.41700585 4.63080469,7.41700585 2.94157031,5.73106433 L1.20710156,4 L2.94154687,2.26893567 C4.63078125,0.582994152 7.36919531,0.582994152 9.05842969,2.26893567 L10.7928984,4 L9.05845313,5.73106433 Z"></path>
                                <path d="M6,1.5048655 C4.61936719,1.5048655 3.49999219,2.62203509 3.49999219,4 C3.49999219,5.37796491 4.61936719,6.4951345 6,6.4951345 C7.38063281,6.4951345 8.50000781,5.37794152 8.50000781,4 C8.50000781,2.62205848 7.38063281,1.5048655 6,1.5048655 Z M6,5.49707602 C5.17164844,5.49707602 4.5,4.82673684 4.5,4 C4.5,3.17326316 5.17164844,2.50292398 6,2.50292398 C6.82835156,2.50292398 7.5,3.17326316 7.5,4 C7.5,4.82673684 6.82835156,5.49707602 6,5.49707602 Z"></path>
                            </g>
                        </g>
                    </g>
                </g>
            </g>
        </g>
    </g>
</svg>

<svg width="12" height="8" xmlns="http://www.w3.org/2000/svg"><g fill="#4A4A4A"><path d="M11.854 3.647 9.766 1.563a5.332 5.332 0 0 0-7.532 0L.146 3.647a.498.498 0 0 0 0 .706l2.088 2.084a5.332 5.332 0 0 0 7.532 0l2.088-2.084a.498.498 0 0 0 0-.706ZM9.058 5.731a4.331 4.331 0 0 1-6.116 0L1.207 4l1.735-1.731a4.331 4.331 0 0 1 6.116 0L10.793 4 9.058 5.731Z"/><path d="M6 1.505C4.62 1.505 3.5 2.622 3.5 4A2.498 2.498 0 0 0 6 6.495c1.38 0 2.5-1.117 2.5-2.495A2.498 2.498 0 0 0 6 1.505Zm0 3.992c-.828 0-1.5-.67-1.5-1.497 0-.827.672-1.497 1.5-1.497S7.5 3.173 7.5 4c0 .827-.672 1.497-1.5 1.497Z"/></g></svg>
